X:320
T:Salatation.
C:John Malchair's Third Collection of Tunes
F:https://www.vwml.org/record/Malchair/3619/p32
F:www.vwml.org/topics/historic-dance-and-tune-books/Malchair
Z:Eric Conrad Jan 2020
N:NB1 No repeats in MS.  Assuming parts are repeated.
N:NB2 Short measure in MS.  Added "d2" (quarter note) to fill measure.
N:NB3 Slur not in MS -- added for parallelism with final measure of A.
M:3/2
L:1/8
R:%triple hornpipe
K:A
P:A
|: "_NB1"e4 c3B ABc2 | B4 E4 E4 | FGA2 F2(ED) (CD)E2 | B,4- B,4 B3c |
d4 f4 FGA2 | G4 B2Bc d2"_NB2"d2 | e2 c4 c2 B2B2 | A6 e2 (fg)a2 :|
P:B
|: d3c d2e2 (fe)(fg) | B6 ^d2 e2f2 | g3a f2(ge) f2^d2 | e6 B2 Bcd2 |
c3B c2A2 (FG)A2 | G6 e2 (ef)g2 | f3e (fa)(ec) B2A2 | A6 e2 "_NB3"(fg)a2 :|

